X:30
T:Last Night in Leadville
M:2/4
L:1/16
Z: Jason R. Fruit <Jason R. Fruit@big-mac>
R: breakdown
K:A
cA | E2Ac BAaf | ecdB cAFG | A2Ac BAaf | ecAc BGEG |
A2Ac BAaf | ecdB cAFG | A2Ac BAaf | ecBc A2 :|
(3(efg) | a2ab aece | dBcA BAFA | agab ae!2!ab | c'abc' a2ab |
c'aba faec | dBcA BAFA | EFAc BAaf | ecBc A2 :|

